!!!COM: Bach, Johann Sebastian
!!!OPR: Joh. Seb. Bachs vierstimmige Choralgesänge
!!!XEN: Four-part Chorales
!!!OTL: 96. Ich dank' dir schon durch deinen Sohn
!!!SCT: BWV 349
!!!SCA: Thematisch-systematisches Verzeichnis der musikalischen Werke Johann Sebastian Bach: Bach-Werke-Verzeichnis (Schmieder)
!!!YOR: Bach Gesellschaft Edition xxxix
!!!ENC: Steven Rasmussen
!!!CDT: 1685/3//-1750/7/28/
!!!OCY: Deutschland
!!!YEC: Copyright (c) 1994, 2000 Center for Computer Assisted Research in the Humanities
!!!YEM: Rights to all derivative editions reserved
!!!YEN: United States of America
**kern	**silbe	**kern	**silbe	**kern	**silbe	**kern	**silbe
*I:[SOPRANO]	*I:[SOPRANO]	*I:[ALTO]	*I:[ALTO]	*I:[TENORE]	*I:[TENORE]	*I:[BASSO]	*I:[BASSO]
*clefG2	*	*clefG2	*	*clefGv2	*	*clefF4	*
*k[b-]	*	*k[b-]	*	*k[b-]	*	*k[b-]	*
*F:	*	*F:	*	*F:	*	*F:	*
*M3/4	*	*M3/4	*	*M3/4	*	*M3/4	*
=1-	=1-	=1-	=1-	=1-	=1-	=1-	=1-
4f/	Ich	4c/	.	4A/	.	4F\	.
4f/	dank'	4c/	.	4A/	.	8F\L	.
.	.	.	.	.	.	8E\J	.
4f/	dir	[4f/	dir	4A/	dir	4D\	.
=2	=2	=2	=2	=2	=2	=2	=2
2b-\	schon	4f/]	.	8G/L	schon	4G\	.
.	.	.	.	8A/J	.	.	.
.	.	8e/L	schon	4B-\	.	4GG/	.
.	.	8d/J	.	.	.	.	.
4g/	durch	4e/	.	4c\	.	4C/	.
=3	=3	=3	=3	=3	=3	=3	=3
2a/	dei-	2f/	.	2c\	.	4F\	.
.	.	.	.	.	.	4E\	.
4bn\	-nen	4f/	.	4d\	.	4D\	.
=4	=4	=4	=4	=4	=4	=4	=4
2.cc;\	Sohn,	2.g;/	.	2.e;\	.	2.C;/	.
=5	=5	=5	=5	=5	=5	=5	=5
4a/	o	4f/	.	4c\	.	8F\L	.
.	.	.	.	.	.	8E-\J	.
4b-\	Gott,	4f/	.	4d\	.	4D\	.
4cc\	f\u3r	8g/L	.	4e-\	.	4C/	.
.	.	8a/J	.	.	.	.	.
=6	=6	=6	=6	=6	=6	=6	=6
2dd\	dei-	2b-\	.	2f\	.	(4BB-/	.
.	.	.	.	.	.	4C/)	.
4b-\	-ne	4b-\	.	4f\	.	4D\	.
=7	=7	=7	=7	=7	=7	=7	=7
2.cc\	G\u3-	2b-\	.	8g\L	.	4E-\	.
.	.	.	.	8f\	.	.	.
.	.	.	.	8e-\	.	4C/	.
.	.	.	.	8d\	.	.	.
.	.	4a/	.	8c\	.	4F\	.
.	.	.	.	8e-\J	.	.	.
=8	=8	=8	=8	=8	=8	=8	=8
2.b-;\	-te,	2.f;/	.	8e-\L	.	2.BB-;/	.
.	.	.	.	16d\L	.	.	.
.	.	.	.	16c\JJ	.	.	.
.	.	.	.	2d;\	.	.	.
=9	=9	=9	=9	=9	=9	=9	=9
4cc\	dass	4g/	.	4c\	.	4E\	.
8a/L	du	4f/	.	4c\	.	4F\	.
8b-/J	.	.	.	.	.	.	.
4cc\	mich	4f/	.	[4c\	mich	4AA/	mich
=10	=10	=10	=10	=10	=10	=10	=10
2dd\	heut'	2f/	.	4c\]	.	8BB-/L	heut'
.	.	.	.	.	.	8C/	.
.	.	.	.	4B-\	heut'	8D/	.
.	.	.	.	.	.	8E/J	.
4cc\	in	4f/	.	4A/	.	4F\	.
=11	=11	=11	=11	=11	=11	=11	=11
4.cc\	die-	8g/L	.	4G/	.	4E\	.
.	.	8f/J	.	.	.	.	.
.	.	4e/	.	4c\	.	4C/	.
8b-\	.	.	.	.	.	.	.
4a/	-ser	4f/	.	4c\	.	4F\	.
=12	=12	=12	=12	=12	=12	=12	=12
2.g;/	Nacht	(4f/	.	2.c;\	.	2.C;/	.
.	.	2e;/)	.	.	.	.	.
=13	=13	=13	=13	=13	=13	=13	=13
4cc\	so	4f/	.	4c\	.	4A\	.
4cc\	gn\a3-	8g/L	.	4c\	.	4E\	.
.	.	8b-/J	.	.	.	.	.
4cc\	-dig	4a/	.	8f\L	.	4F\	.
.	.	.	.	8e\J	.	.	.
=14	=14	=14	=14	=14	=14	=14	=14
2b-\	hast	4g/	.	4d\	.	4G\	.
.	.	8f/L	.	4c\	.	4C/	.
.	.	8e/J	.	.	.	.	.
4a/	be-	4f/	.	4c\	.	4F\	.
=15	=15	=15	=15	=15	=15	=15	=15
4a/	-h\u3-	2f/	.	4c\	.	4AA/	.
2g/	.	.	.	4d\	.	4BB-/	.
.	.	4e/	.	8c\L	.	4C/	.
.	.	.	.	8B-\J	.	.	.
=16	=16	=16	=16	=16	=16	=16	=16
2.f;/	-tet.	2.c;/	.	2.A;/	.	2.FF;/	.
==|!	==|!	==|!	==|!	==|!	==|!	==|!	==|!
*-	*-	*-	*-	*-	*-	*-	*-
!!!RWG: Key is interpreted using the Humdrum key tool.
!!!END: 1994/06/27/
!!!KEY: 3420078255
!!!EMD: Converted from MuseData to Humdrum Dec 19, 2000, by Andreas Kornstaedt using muse2kern.
